X:1
T:[ID 7-193]
T:[ID 7-193]
T:Bezeichnung standardisiert: Menuet [mit Trio] Menuet Con Trio
T:Urheber unbekannt Datum in der hier transkribierten schriftlichen Quelle: 1776 - 1791
C:Urheber unbekannt
C:Datum in der hier transkribierten schriftlichen Quelle: 1776 - 1791
L:1/8
M:3/4
K:F
V:1 treble 
V:1
 F4 (F/G/A/B/) | c2 c2 (3cde | f2 e2 d2 | c2 B2 A2 | G2 G/A/B/c/ B2 | A2 A/B/c/d/ c2 | cBgBAf | %7
{A} G6 :: c4 (c/d/e/f/) | g2 B2 A2 | G2 c2 (c/d/e/f/) | g2 B2 A2 | Ggfefc |{c} B4 A2 | G2 F2 E2 | %15
{E} F6 :|[M:3/4]"^Trio" !fermata!c'2 c'3 d' | b2 b3 a | a2 a3 b | a3 g f2 | GAABBc | cddeef | %22
 fc B2 A2 |{A} G6 :: C2 (3efg e2 | C2 (3fga f2 | (3cde b2 ba | g4 c2 | f2 c2 d2 | c3 B A2 | %30
 G2 F2 E2 |{G} F6 :| %32

